X:1
T:English Suite IV Allemande
T:BWV 809
T:J. S. Bach
%%score { ( 1 3 4 ) | ( 2 5 6 ) }
L:1/8
Q:1/4=96
M:4/4
K:F
V:1 treble nm="Harp"
V:3 treble 
V:4 treble 
V:2 bass 
V:5 bass 
V:6 bass 
V:1
"^Andante" f/ | f-f/4f/4e/4d/4 c/d/c/B/ (3A/B/c/(3A/B/c/ (3F/G/A/(3F/G/A/ | %2
 CF G/4F/4G/4F/4G/4F/4E/4F/4 GG A/4G/4A/4G/4A/4G/4F/4G/4 | A/c/d/e/ f2 f/f/e/f/ g/e/f/g/ | %4
 c4- c/c/B/A/ B/G/A/B/ | E/G/A/B/ c2- c/B/A/d/ c/4B/4c/4B/4c/4B/4A/4B/4 | A/c/d/e/ f3 e d/g/f/g/ | %7
 e2- e/e/f/g/ (3a/=b/c'/(3a/b/c'/ (3f/g/a/(3f/g/a/ | %8
 d2- d/d/e/f/ (3g/a/=b/(3g/a/b/ (3e/f/g/(3e/f/g/ | %9
 c2- c/_e/d/c/ (3^f/g/a/(3f/g/a/ (3c/d/e/(3c/d/e/ | (3=B/c/d/(3B/c/d/ (3G/A/B/B c_e_Ac | %11
 ^FADF =B,/D/G/B,/ C/A/D/=B/ | E/G/c/E/ D/c/F/=B/ c7/2 f/ | %13
 f-f/4f/4e/4d/4 c/d/c/B/ (3A/B/c/(3A/B/c/ (3F/G/A/(3F/G/A/ | %14
 CF G/4F/4G/4F/4G/4F/4E/4F/4 GG A/4G/4A/4G/4A/4G/4F/4G/4 | A/c/d/e/ f2 f/f/e/f/ g/e/f/g/ | %16
 c4- c/c/B/A/ B/G/A/B/ | E/G/A/B/ c2- c/B/A/d/ c/4B/4c/4B/4c/4B/4A/4B/4 | A/c/d/e/ f3 e d/g/f/g/ | %19
 e2- e/e/f/g/ (3a/=b/c'/(3a/b/c'/ (3f/g/a/(3f/g/a/ | %20
 d2- d/d/e/f/ (3g/a/=b/(3g/a/b/ (3e/f/g/(3e/f/g/ | %21
 c2- c/_e/d/c/ (3^f/g/a/(3f/g/a/ (3c/d/e/(3c/d/e/ | (3=B/c/d/(3B/c/d/ (3G/A/B/B c_e_Ac | %23
 ^FADF =B,/D/G/B,/ C/A/D/=B/ | E/G/c/E/ D/c/F/=B/ c7/2 g/ | g2 z/ G/A/=B/ cGec | %26
 (3g/f/e/(3g/f/e/ c'/g/g/4f/4e/ (3a/g/f/(3a/g/f/ =b/f/f/4e/4d/ | %27
 cg g-g/4b/4a/4g/4 ff f-f/4a/4g/4f/4 | e/d/e/f/ e/g/^f/e/ fd g2- | %29
 g/e/g/g/ f/a/g/f/ e/d/e/f/ e/g/f/e/ | d>e ^c>d dA/4B/4A/4B/4 =c/4B/4c/4B/4c/4B/4A/4B/4 | %31
 c/_e/d/c/ d/B/c/d/ G-G/4A/4G/4A/4 B/4A/4B/4A/4B/4A/4G/4A/4 | %32
 B/d/c/B/ c/A/B/c/ F/F/4G/4A/4G/4F/4G/4 A/>B/c/4B/4A/4B/4 | %33
 (3c/B/c/(3d/c/d/ (3e/d/e/(3f/e/f/ (3g/f/g/a- a/a/g/f/ | e/f/e/d/ c>c _d/c/B/c/ F/c/B/c/ | %35
 d/c/=B/c/ F/_A/G/F/ _B/_d/B/G/ E/G/c/B/ | A/c/f/A/ G/f/B/e/ f7/2 g/ | g2 z/ G/A/=B/ cGec | %38
 (3g/f/e/(3g/f/e/ c'/g/g/4f/4e/ (3a/g/f/(3a/g/f/ =b/f/f/4e/4d/ | %39
 cg g-g/4b/4a/4g/4 ff f-f/4a/4g/4f/4 | e/d/e/f/ e/g/^f/e/ fd g2- | %41
 g/e/g/g/ f/a/g/f/ e/d/e/f/ e/g/f/e/ | d>e ^c>d dA/4B/4A/4B/4 =c/4B/4c/4B/4c/4B/4A/4B/4 | %43
 c/_e/d/c/ d/B/c/d/ G-G/4A/4G/4A/4 B/4A/4B/4A/4B/4A/4G/4A/4 | %44
 B/d/c/B/ c/A/B/c/ F/F/4G/4A/4G/4F/4G/4 A/>B/c/4B/4A/4B/4 | %45
 (3c/B/c/(3d/c/d/ (3e/d/e/(3f/e/f/ (3g/f/g/a- a/a/g/f/ | e/f/e/d/ c>c _d/c/B/c/ F/c/B/c/ | %47
 d/c/=B/c/ F/_A/G/F/ _B/_d/B/G/ E/G/c/B/ | A/c/f/A/ G/f/B/e/ f7/2 z/ |] %49
V:2
 z/ | F,F,, z/ F/E/D/ CFA,C | %2
 (3F,/G,/A,/(3F,/G,/A,/ (3D,/E,/F,/(3D,/E,/F,/ (3B,,/C,/D,/(3B,,/C,/D,/ G,,/C,/B,,/C,/ | %3
 F,,F, G,/4F,/4G,/4F,/4G,/4F,/4E,/4F,/4 G,G, A,/4G,/4A,/4G,/4A,/4G,/4F,/4G,/4 | A,2 z A, B,2 z B, | %5
 B,4 A,DG,C | F,E,D,C, =B,,/D,/E,/F,/ G,G,, | %7
 (3C,/D,/E,/(3C,/D,/E,/ (3A,,/B,,/C,/(3A,,/B,,/C,/ F,,A,D,F, | %8
 (3=B,,/C,/D,/(3B,,/C,/D,/ (3G,,/A,,/B,,/(3G,,/A,,/B,,/ E,,G,C,E, | %9
 (3A,,/=B,,/C,/(3A,,/B,,/C,/ (3^F,,/G,,/A,,/(3F,,/G,,/A,,/ D,,A,,=F,,D,, | %10
 G,,2 z G, _A,/G,/^F,/G,/ C,/G,/=F,/^G,/ | A,/G,/^F,/G,/ C,/_E,/D,/C,/ =F,2- F,/F,/=E,/D,/ | %12
 C,/E,/A,/F,/ G,G,, C,2 C,3/2 z/ | F,F,, z/ F/E/D/ CFA,C | %14
 (3F,/G,/A,/(3F,/G,/A,/ (3D,/E,/F,/(3D,/E,/F,/ (3B,,/C,/D,/(3B,,/C,/D,/ G,,/C,/B,,/C,/ | %15
 F,,F, G,/4F,/4G,/4F,/4G,/4F,/4E,/4F,/4 G,G, A,/4G,/4A,/4G,/4A,/4G,/4F,/4G,/4 | A,2 z A, B,2 z B, | %17
 B,4 A,DG,C | F,E,D,C, =B,,/D,/E,/F,/ G,G,, | %19
 (3C,/D,/E,/(3C,/D,/E,/ (3A,,/B,,/C,/(3A,,/B,,/C,/ F,,A,D,F, | %20
 (3=B,,/C,/D,/(3B,,/C,/D,/ (3G,,/A,,/B,,/(3G,,/A,,/B,,/ E,,G,C,E, | %21
 (3A,,/=B,,/C,/(3A,,/B,,/C,/ (3^F,,/G,,/A,,/(3F,,/G,,/A,,/ D,,A,,=F,,D,, | %22
 G,,2 z G, _A,/G,/^F,/G,/ C,/G,/=F,/^G,/ | A,/G,/^F,/G,/ C,/_E,/D,/C,/ =F,2- F,/F,/=E,/D,/ | %24
 C,/E,/A,/F,/ G,G,, C,2 C,3/2 z/ | %25
 C,-C,/4G,,/4A,,/4=B,,/4 C,/B,,/C,/D,/ (3E,/D,/C,/(3E,/D,/C,/ (3G,/F,/E,/(3G,/F,/E,/ | %26
 CG, G,-G,/4=B,/4A,/4G,/4 F,F, F,-F,/4A,/4G,/4F,/4 | z/ G,/A,/=B,/ C2- C/C/B,/A,/ B,2 | %28
 z G, C2- C/A,/=B,/C/ B,/D/^C/B,/ | ^C2 D4 C2 | DG,A,A,, D,,D, z/ D,/C,/B,,/ | %31
 A,,A,/4B,/4A,/4B,/4 C/4B,/4C/4B,/4C/4B,/4A,/4B,/4 CC, z/ C,/B,,/A,,/ | %32
 G,,G,/4A,/4G,/4A,/4 B,/4A,/4B,/4A,/4B,/4A,/4G,/4A,/4 B,B,, z/ F,/4G,/4A,/4G,/4F,/4G,/4 | %33
 (3A,/G,/A,/(3B,/A,/B,/ (3C/B,/C/(3D/C/D/ (3E/D/E/F- F/[I:staff -1]F/B/A/ | %34
[I:staff +1] C2- C/B,/A,/G,/ F,_A,D,F, | =B,,D,G,,B,, E,,2 z/ B,/A,/G,/ | %36
 F,/A,/D/B,/ CC, F,2 F,3/2 z/ | %37
 C,-C,/4G,,/4A,,/4=B,,/4 C,/B,,/C,/D,/ (3E,/D,/C,/(3E,/D,/C,/ (3G,/F,/E,/(3G,/F,/E,/ | %38
 CG, G,-G,/4=B,/4A,/4G,/4 F,F, F,-F,/4A,/4G,/4F,/4 | z/ G,/A,/=B,/ C2- C/C/B,/A,/ B,2 | %40
 z G, C2- C/A,/=B,/C/ B,/D/^C/B,/ | ^C2 D4 C2 | DG,A,A,, D,,D, z/ D,/C,/B,,/ | %43
 A,,A,/4B,/4A,/4B,/4 C/4B,/4C/4B,/4C/4B,/4A,/4B,/4 CC, z/ C,/B,,/A,,/ | %44
 G,,G,/4A,/4G,/4A,/4 B,/4A,/4B,/4A,/4B,/4A,/4G,/4A,/4 B,B,, z/ F,/4G,/4A,/4G,/4F,/4G,/4 | %45
 (3A,/G,/A,/(3B,/A,/B,/ (3C/B,/C/(3D/C/D/ (3E/D/E/F- F/[I:staff -1]F/B/A/ | %46
[I:staff +1] C2- C/B,/A,/G,/ F,_A,D,F, | =B,,D,G,,B,, E,,2 z/ B,/A,/G,/ | %48
 F,/A,/D/B,/ CC, F,2 F,3/2 z/ |] %49
V:3
 x/ | c z z2 z4 | z4 z F E2 | F2 z/ c/B/A/ B4- | B/B/A/G/ A/F/G/A/ D2 z D | C2 z/ C/D/E/ F3 E | %6
 F2 z/ A/=B/c/ dc B2 | c/G/A/=B/ c2- c4- | c/c/=B/A/ B2- B4- | B/=B/A/G/ A2- A4 | %10
 G2 z (3F/G/_A/ _E z z2 | x8 | z2 DF G7/2 z/ | c z z2 z4 | z4 z F E2 | F2 z/ c/B/A/ B4- | %16
 B/B/A/G/ A/F/G/A/ D2 z D | C2 z/ C/D/E/ F3 E | F2 z/ A/=B/c/ dc B2 | c/G/A/=B/ c2- c4- | %20
 c/c/=B/A/ B2- B4- | B/=B/A/G/ A2- A4 | G2 z (3F/G/_A/ _E z z2 | x8 | z2 DF G7/2 x/ | e2 z2 z4 | %26
 x8 | x8 | x8 | z/ G/A/B/ A/c/B/A/ G/F/G/A/ G/B/A/G/ | F>G E2 F4- | F4 E4 | _E4 D z z2 | %33
 z4 z a/c/ d2 | c z z2 z4 | x8 | z2 GB c7/2 x/ | e2 z2 z4 | x8 | x8 | x8 | %41
 z/ G/A/B/ A/c/B/A/ G/F/G/A/ G/B/A/G/ | F>G E2 F4- | F4 E4 | _E4 D z z2 | z4 z a/c/ d2 | %46
 c z z2 z4 | x8 | z2 GB c7/2 x/ |] %49
V:4
 x/ | A z z2 z4 | x8 | x8 | x8 | x8 | x8 | x8 | x8 | x8 | x8 | x8 | z4 E7/2 z/ | A z z2 z4 | x8 | %15
 x8 | x8 | x8 | x8 | x8 | x8 | x8 | x8 | x8 | z4 E7/2 x/ | c2 z2 z4 | x8 | x8 | x8 | x8 | x8 | x8 | %32
 x8 | x8 | G/A/G/F/ E/ z/ z z4 | x8 | z4 A7/2 x/ | c2 z2 z4 | x8 | x8 | x8 | x8 | x8 | x8 | x8 | %45
 x8 | G/A/G/F/ E/ z/ z z4 | x8 | z4 A7/2 x/ |] %49
V:5
 x/ | x8 | x8 | x8 | x8 | x8 | x8 | x8 | x8 | x8 | x8 | x8 | z4 C,/C,,/E,,/G,,/ z3/2 z/ | x8 | x8 | %15
 x8 | x8 | x8 | x8 | x8 | x8 | x8 | x8 | x8 | z4 C,/C,,/E,,/G,,/ z3/2 x/ | x8 | x8 | %27
 E,2 z/ G,/F,/E,/ D,2 z/ G,/F,/G,/ | C,2 z2 z4 | x8 | x8 | x8 | x8 | z4 z F/A,/ B,2 | x8 | x8 | %36
 z4 F,/F,,/A,,/C,/ z3/2 x/ | x8 | x8 | E,2 z/ G,/F,/E,/ D,2 z/ G,/F,/G,/ | C,2 z2 z4 | x8 | x8 | %43
 x8 | x8 | z4 z F/A,/ B,2 | x8 | x8 | z4 F,/F,,/A,,/C,/ z3/2 x/ |] %49
V:6
 x/ | x8 | x8 | x8 | x8 | x8 | x8 | x8 | x8 | x8 | x8 | x8 | z4 z/ C,,3/2- C,,3/2 z/ | x8 | x8 | %15
 x8 | x8 | x8 | x8 | x8 | x8 | x8 | x8 | x8 | z4 z/ C,,3/2- C,,3/2 x/ | x8 | x8 | x8 | x8 | x8 | %30
 x8 | x8 | x8 | x8 | x8 | x8 | z4 z/ F,,3/2- F,,3/2 x/ | x8 | x8 | x8 | x8 | x8 | x8 | x8 | x8 | %45
 x8 | x8 | x8 | z4 z/ F,,3/2- F,,3/2 x/ |] %49

